assets/icons/cooking.svg

<?xml version="1.0" encoding="UTF-8"?>
<svg width="50px" height="50px" viewBox="0 0 50 50" version="1.1" xmlns="http://www.w3.org/2000/svg" xmlns:xlink="http://www.w3.org/1999/xlink">
    <!-- Generator: Sketch 59.1 (86144) - https://sketch.com -->
    <title>cooking</title>
    <desc>Created with Sketch.</desc>
    <g id="Page-1" stroke="none" stroke-width="1" fill="none" fill-rule="evenodd">
        <g id="quote_form" transform="translate(-695.000000, -50.000000)" fill="#C6C4C4" fill-rule="nonzero">
            <g id="timeline" transform="translate(215.000000, 50.000000)">
                <g id="cooking" transform="translate(480.000000, 0.000000)">
                    <path d="M44.1182642,10.0275845 C46.1839378,10.0275845 47.8646373,11.8628699 47.8646373,14.1185707 C47.8646373,16.3742715 46.1839378,18.209557 44.1182642,18.209557 C42.0525907,18.209557 40.3720207,16.3742715 40.3720207,14.1185707 C40.3720207,11.8628699 42.0525907,10.0275845 44.1182642,10.0275845 L44.1182642,10.0275845 Z M44.1182642,12.8567589 C43.4810881,12.8567589 42.9626943,13.4228767 42.9626943,14.1185707 C42.9626943,14.8144062 43.4810881,15.3803825 44.1182642,15.3803825 C44.7555699,15.3803825 45.2739637,14.8144062 45.2739637,14.1185707 C45.2739637,13.4228767 44.7555699,12.8567589 44.1182642,12.8567589 Z M49.9876943,30.5269337 L49.9876943,32.2230238 C49.9876943,34.432892 48.3414508,36.2306909 46.3180052,36.2306909 L45.2387306,36.2306909 L45.2387306,43.8574379 C45.2387306,47.2107169 42.7406736,49.9387484 39.6700777,49.9387484 L10.4034974,49.9387484 C7.33303109,49.9387484 4.83497409,47.2107169 4.83497409,43.8574379 L4.83497409,36.2306909 L3.75569948,36.2306909 C1.73212435,36.2306909 0.085880829,34.432892 0.085880829,32.2230238 L0.085880829,30.5269337 C0.085880829,28.3170656 1.73212435,26.5192667 3.75569948,26.5192667 L4.83497409,26.5192667 L4.83497409,22.33902 C4.83497409,21.5577435 5.41502591,20.9244328 6.13031088,20.9244328 L43.9433938,20.9244328 C44.6586788,20.9244328 45.2387306,21.5577435 45.2387306,22.33902 L45.2387306,26.5192667 L46.3180052,26.5192667 C48.3414508,26.5192667 49.9876943,28.3170656 49.9876943,30.5269337 Z M4.83484456,29.3484411 L3.75556995,29.3484411 C3.16049223,29.3484411 2.67642487,29.8770724 2.67642487,30.5269337 L2.67642487,32.2230238 C2.67642487,32.8728852 3.16049223,33.4015164 3.75556995,33.4015164 L4.83484456,33.4015164 L4.83484456,29.3484411 L4.83484456,29.3484411 Z M42.6479275,23.7536072 L7.42551813,23.7536072 L7.42551813,43.8574379 C7.42551813,45.6507101 8.76139896,47.1095739 10.4033679,47.1095739 L39.6699482,47.1095739 C41.3120466,47.1095739 42.6479275,45.6507101 42.6479275,43.8574379 L42.6479275,23.7536072 Z M47.3970207,30.5269337 C47.3970207,29.8770724 46.9129534,29.3484411 46.3180052,29.3484411 L45.2387306,29.3484411 L45.2387306,33.4015164 L46.3180052,33.4015164 C46.9129534,33.4015164 47.3970207,32.8728852 47.3970207,32.2230238 L47.3970207,30.5269337 L47.3970207,30.5269337 Z M40.7049223,3.19809879 C41.0362694,3.19809879 41.3676166,3.06003508 41.6204663,2.78419057 L41.7948187,2.59392859 C42.3009067,2.04167374 42.3011658,1.14609857 41.7954663,0.59341934 C41.2900259,0.0405986533 40.4696891,0.0404571946 39.963601,0.592712047 L39.7892487,0.782974028 C39.2831606,1.33522888 39.2829016,2.23080405 39.788601,2.78348328 C40.0415803,3.05989362 40.3733161,3.19809879 40.7049223,3.19809879 Z M29.9683938,18.1275109 C29.9683938,18.9087874 30.5484456,19.5420981 31.2637306,19.5420981 C31.9790155,19.5420981 32.5590674,18.9087874 32.5590674,18.1275109 C32.5590674,17.0101284 33.3915803,16.1009732 34.4146373,16.1009732 C35.4378238,16.1009732 36.2703368,17.0101284 36.2703368,18.1275109 C36.2703368,18.9087874 36.8503886,19.5420981 37.5656736,19.5420981 C38.2809585,19.5420981 38.8610104,18.9087874 38.8610104,18.1275109 C38.8610104,15.4501217 36.8664508,13.2717988 34.4146373,13.2717988 C31.9629534,13.2717988 29.9683938,15.4499802 29.9683938,18.1275109 L29.9683938,18.1275109 Z M5.7746114,16.0101567 C5.60997409,15.2498161 6.04093264,14.487778 6.73717617,14.3079839 L20.8091969,10.6746166 L20.5610104,9.52752787 C20.0954663,7.37693091 21.3189119,5.21374413 23.2880829,4.70548294 L24.7994819,4.31533978 C26.7680052,3.80693714 28.7494819,5.14273185 29.2151554,7.29318735 L29.463601,8.44027613 L43.5354922,4.80676739 C44.2314767,4.62725627 44.9295337,5.09760652 45.0940415,5.85794715 C45.2586788,6.61828778 44.8277202,7.38032592 44.1314767,7.56011996 L7.33329016,17.0613365 C7.23316062,17.0872234 7.13277202,17.0996718 7.03406736,17.0996718 C6.44727979,17.0995304 5.91554404,16.6610083 5.7746114,16.0101567 Z M23.0821244,8.87667629 L23.3304404,10.0236236 L26.9423575,9.09098625 L26.6940415,7.94403893 C26.5768135,7.40253494 26.1326425,7.03658123 25.6439119,7.03658123 C25.5619171,7.03658123 25.478886,7.04690771 25.3955959,7.06826798 L23.8841969,7.45855259 C23.3049223,7.60821592 22.9452073,8.24421434 23.0821244,8.87667629 L23.0821244,8.87667629 Z" id="Shape"></path>
                </g>
            </g>
        </g>
    </g>
</svg>

<svg xmlns="http://www.w3.org/2000/svg" width="50" height="50" viewBox="0 0 50 50"><path fill="#C6C4C4" d="M44.118 10.028c2.066 0 3.747 1.835 3.747 4.09 0 2.256-1.681 4.092-3.747 4.092-2.065 0-3.746-1.836-3.746-4.091 0-2.256 1.68-4.091 3.746-4.091zm0 2.829c-.637 0-1.155.566-1.155 1.262 0 .695.518 1.261 1.155 1.261.638 0 1.156-.566 1.156-1.261 0-.696-.518-1.262-1.156-1.262zm5.87 17.67v1.696c0 2.21-1.647 4.008-3.67 4.008h-1.08v7.626c0 3.354-2.497 6.082-5.568 6.082H10.403c-3.07 0-5.568-2.728-5.568-6.082v-7.626h-1.08c-2.023 0-3.67-1.798-3.67-4.008v-1.696c0-2.21 1.647-4.008 3.67-4.008h1.08v-4.18c0-.781.58-1.415 1.295-1.415h37.813c.716 0 1.296.634 1.296 1.415v4.18h1.079c2.023 0 3.67 1.798 3.67 4.008zM4.835 29.348h-1.08c-.595 0-1.079.53-1.079 1.179v1.696c0 .65.484 1.179 1.08 1.179h1.079v-4.054zm37.813-5.594H7.426v20.103c0 1.794 1.335 3.253 2.977 3.253H39.67c1.642 0 2.978-1.46 2.978-3.253V23.754zm4.749 6.773c0-.65-.484-1.179-1.079-1.179h-1.08v4.054h1.08c.595 0 1.079-.53 1.079-1.179v-1.696zM40.705 3.198c.331 0 .663-.138.915-.414l.175-.19a1.508 1.508 0 0 0 0-2 1.22 1.22 0 0 0-1.831-.001l-.175.19a1.508 1.508 0 0 0 0 2c.253.277.584.415.916.415zm-10.737 14.93c0 .78.58 1.414 1.296 1.414.715 0 1.295-.633 1.295-1.414 0-1.118.833-2.027 1.856-2.027 1.023 0 1.855.91 1.855 2.027 0 .78.58 1.414 1.296 1.414.715 0 1.295-.633 1.295-1.414 0-2.678-1.995-4.856-4.446-4.856-2.452 0-4.447 2.178-4.447 4.856zM5.775 16.01c-.165-.76.266-1.522.962-1.702l14.072-3.633-.248-1.147c-.466-2.151.758-4.314 2.727-4.823l1.511-.39c1.969-.508 3.95.828 4.416 2.978l.249 1.147 14.071-3.633c.696-.18 1.395.29 1.559 1.05.165.761-.266 1.523-.963 1.703L7.333 17.061c-.1.026-.2.039-.299.039-.587 0-1.118-.439-1.26-1.09zm17.307-7.133l.248 1.147 3.612-.933-.248-1.147c-.117-.541-.561-.907-1.05-.907a.997.997 0 0 0-.248.031l-1.512.39c-.58.15-.939.786-.802 1.419z"/></svg>
